static/assets/img/icons/theme/cooking/fork-spoon-knife.svg

<svg height="24" viewBox="0 0 24 24" width="24" xmlns="http://www.w3.org/2000/svg"><g fill="none" fill-rule="evenodd"><path d="m0 0h24v24h-24z" opacity="0"/><g fill="#000"><path d="m11 3 .4502481 4.5024814c.0282436.28243582.2659074.4975186.5497519.4975186s.5215083-.21508278.5497519-.4975186l.4502481-4.5024814h1l.4502481 4.5024814c.0282436.28243582.2659074.4975186.5497519.4975186s.5215083-.21508278.5497519-.4975186l.4502481-4.5024814h1v4.5c0 1.93299662-1.5670034 3.5-3.5 3.5s-3.5-1.56700338-3.5-3.5v-4.5z"/><path d="m13.5 13c.5610373 0 1.0243493.4382868 1.05547.9984604l.361325 6.5038491c.0434708.7824742-.5556099 1.452035-1.3380842 1.4955058-.0262117.0014562-.0524587.0021847-.0787108.0021847-.7836808 0-1.4189797-.6352989-1.4189797-1.4189797 0-.0262521.0007285-.0524991.0021847-.0787108l.361325-6.5038491c.0311207-.5601736.4944327-.9984604 1.05547-.9984604z" opacity=".3"/><path d="m21.5 15c.5634495 0 1.0311029.4354411 1.071247.9974587l.3218824 4.5063533c.0549575.7694041-.524216 1.4376812-1.2936202 1.4926386-.033117.0023655-.0663078.0035494-.0995092.0035494-.7713644 0-1.3966788-.6253144-1.3966788-1.3966788 0-.0332014.0011839-.0663922.0035494-.0995092l.3218824-4.5063533c.0401441-.5620176.5077975-.9974587 1.071247-.9974587z" opacity=".3"/><path d="m24 3v10h-4v-6c0-2.209139 1.790861-4 4-4z" transform="matrix(-1 0 0 1 44 0)"/><path d="m4.5 14c.56209761 0 1.0273156.4370496 1.06237829.9980526l.34405428 5.5048685c.04854695.7767513-.54177927 1.4457877-1.31853053 1.4943346-.029265.0018291-.05857995.0027443-.08790204.0027443-.77826687 0-1.40917683-.63091-1.40917683-1.4091768 0-.0293221.0009152-.0586371.00274426-.0879021l.34405428-5.5048685c.03506269-.561003.50028068-.9980526 1.06237829-.9980526z" opacity=".3"/><path d="m4.5 12c-1.93299662 0-3.5-2.56700338-3.5-4.5s1.56700338-4.5 3.5-4.5 3.5 2.56700338 3.5 4.5-1.56700338 4.5-3.5 4.5zm.0095372-7.39896756.05115285 5.34655c1.0582249-.08972414 1.89786907-.96777022 1.91680609-2.05267154.01979195-1.13388004-.84474167-3.19020099-1.96795894-3.29387846z"/></g></g></svg>

<svg width="24px" height="24px" viewBox="0 0 24 24" version="1.1" xmlns="http://www.w3.org/2000/svg" xmlns:xlink="http://www.w3.org/1999/xlink">
    <title>Icon For Fork-spoon-knife</title>
    <g stroke="none" stroke-width="1" fill="none" fill-rule="evenodd">
        <rect opacity="0" x="0" y="0" width="24" height="24"></rect>
        <path d="M11,3 L11.4502481,7.5024814 C11.4784917,7.78491722 11.7161555,8 12,8 C12.2838445,8 12.5215083,7.78491722 12.5497519,7.5024814 L13,3 L14,3 L14.4502481,7.5024814 C14.4784917,7.78491722 14.7161555,8 15,8 C15.2838445,8 15.5215083,7.78491722 15.5497519,7.5024814 L16,3 L17,3 L17,7.5 C17,9.43299662 15.4329966,11 13.5,11 C11.5670034,11 10,9.43299662 10,7.5 L10,3 L11,3 Z" fill="#000000"></path>
        <path d="M13.5,13 L13.5,13 C14.0610373,13 14.5243493,13.4382868 14.55547,13.9984604 L14.916795,20.5023095 C14.9602658,21.2847837 14.3611851,21.9543445 13.5787108,21.9978153 C13.5524991,21.9992715 13.5262521,22 13.5,22 L13.5,22 C12.7163192,22 12.0810203,21.3647011 12.0810203,20.5810203 C12.0810203,20.5547682 12.0817488,20.5285212 12.083205,20.5023095 L12.44453,13.9984604 C12.4756507,13.4382868 12.9389627,13 13.5,13 Z" fill="#000000" opacity="0.3"></path>
        <path d="M21.5,15 L21.5,15 C22.0634495,15 22.5311029,15.4354411 22.571247,15.9974587 L22.8931294,20.503812 C22.9480869,21.2732161 22.3689134,21.9414932 21.5995092,21.9964506 C21.5663922,21.9988161 21.5332014,22 21.5,22 L21.5,22 C20.7286356,22 20.1033212,21.3746856 20.1033212,20.6033212 C20.1033212,20.5701198 20.1045051,20.536929 20.1068706,20.503812 L20.428753,15.9974587 C20.4688971,15.4354411 20.9365505,15 21.5,15 Z" fill="#000000" opacity="0.3"></path>
        <path d="M24,3 L24,13 L20,13 L20,7 C20,4.790861 21.790861,3 24,3 Z" fill="#000000" transform="translate(22.000000, 8.000000) scale(-1, 1) translate(-22.000000, -8.000000) "></path>
        <path d="M4.5,14 L4.5,14 C5.06209761,14 5.5273156,14.4370496 5.56237829,14.9980526 L5.90643257,20.5029211 C5.95497952,21.2796724 5.3646533,21.9487088 4.58790204,21.9972557 C4.55863704,21.9990848 4.52932209,22 4.5,22 L4.5,22 C3.72173313,22 3.09082317,21.36909 3.09082317,20.5908232 C3.09082317,20.5615011 3.09173837,20.5321861 3.09356743,20.5029211 L3.43762171,14.9980526 C3.4726844,14.4370496 3.93790239,14 4.5,14 Z" fill="#000000" opacity="0.3"></path>
        <path d="M4.5,12 C2.56700338,12 1,9.43299662 1,7.5 C1,5.56700338 2.56700338,3 4.5,3 C6.43299662,3 8,5.56700338 8,7.5 C8,9.43299662 6.43299662,12 4.5,12 Z M4.5095372,4.60103244 L4.56069005,9.94758244 C5.61891495,9.8578583 6.45855912,8.97981222 6.47749614,7.8949109 C6.49728809,6.76103086 5.63275447,4.70470991 4.5095372,4.60103244 Z" fill="#000000"></path>
    </g>
</svg>
